X:9
T:Far From Home
R:Reel
M:C|
L:1/8
S:Mark_Gailey{PubScout+chords}
K:G
|:"G"GEDE G2-GA|B2 (BA) (Bc) d2|GEDE G2-GB|"Am"AGAB "D"AGED|!
"G"(GE)(DE) G2-GA|B2 (BA)(Bc) d2|"Bm"edef "C"gedc|"D"BGAB"G"G3z:|!
|:"G"g2 (ge) "G"f2 (fd)|"Am"e2-ef "Em"edBG|"G"gedB G2B2|"Am"AGAB "D"AGED|!
"G"GEDE G2-GA|B2 (BA) (Bc) d2|"Bm"edef "C"gedc|"D"BGAF "G"G3z:|

